X: 33
M:6/8
L:1/8
K:C
cBA AGE|AGA c2 d|efe dcB|cAA A2 :|
|:d|eaa efg|eaa ged|eaa gdc|BGG G2 A/2B/2|
1cBA AGE|AGA c2 d|efe dcB|cAA A2:|
2cBc dcd|edB c2 d|efe dcB|cAA A2||

